assets/images/svg/malfi-sm.svg

<svg width="280" height="186" viewBox="0 0 280 186" fill="none" xmlns="http://www.w3.org/2000/svg">
<path d="M63.7884 55.6926C62.7578 65.0656 62.5439 74.6849 63.2828 84.0774C63.4643 86.3914 62.842 89.088 63.6912 91.2983C63.5032 90.8057 64.3718 89.6973 64.5727 89.2435C65.02 88.2323 65.3635 87.1693 65.7654 86.1386C66.5368 84.1422 67.3276 82.1522 68.1314 80.1752C69.7389 76.2082 71.3983 72.2671 73.116 68.3455C76.5515 60.5088 80.2074 52.7757 84.0901 45.1464C85.6263 42.1258 87.1172 39.0857 88.6275 36.0457C90.4749 32.4352 92.4713 28.896 94.2798 25.2661C95.8484 22.3427 96.7689 18.9526 100.561 18.5118C107.892 17.6627 110.517 24.7151 108.43 30.8212C105.675 38.8783 102.661 46.391 100.561 54.6555C90.41 94.5199 87.4348 129.367 98.1301 178.449C98.3894 179.648 99.0765 180.912 98.4996 181.995C98.3635 182.241 95.5503 186.448 86.5921 185.32C85.4059 185.171 84.2845 184.568 83.3576 183.81C81.238 182.066 80.4407 178.896 79.7601 176.342C79.0665 173.73 78.5998 171.059 78.2303 168.382C77.6146 163.897 77.3034 159.379 77.0895 154.861C77.0571 154.213 76.9663 153.526 76.9663 152.884C76.9663 140.451 77.1932 128.071 78.0877 115.671C78.522 109.616 79.0471 103.575 79.8768 97.5664C80.3111 94.4421 80.7907 91.3242 81.251 88.1999C81.6464 85.5293 82.4436 82.5282 82.3594 79.8252C78.6063 88.6537 76.0589 97.9424 73.116 107.063C72.4354 109.169 71.8196 111.295 71.2816 113.441C70.7631 115.509 69.7195 118.665 68.5008 120.461C66.297 123.702 63.5032 123.618 60.0807 122.114C56.1656 120.396 53.4366 117.006 51.8226 113.104C49.3919 107.238 48.4649 100.328 47.5899 94.0726C46.987 89.7426 46.5916 85.3802 46.4166 81.0049C46.3259 78.8399 46.1768 76.6036 46.3129 74.4386C46.3713 73.5052 46.7926 70.8411 45.4054 70.5689C44.5368 70.4003 41.3931 78.7038 40.9588 79.6307C39.2799 83.2023 37.5233 86.7415 35.663 90.2223C30.9506 99.0378 25.3825 107.302 19.3089 115.223C17.5911 117.466 15.6919 119.793 13.0343 120.72C8.87283 122.179 2.52046 119.819 0.699012 115.658C-1.37523 110.926 1.53519 107.14 4.61415 103.789C7.28473 100.879 9.8192 97.8451 12.2629 94.7403C43.1043 55.5954 48.802 33.3297 50.7661 30.9249C52.4579 28.8636 54.8757 26.6921 57.624 26.3551C59.5233 26.1217 61.6818 26.7764 63.4125 27.5153C65.0978 28.2348 66.3099 29.6285 66.9711 31.3332C68.3518 34.9372 66.4914 39.332 65.7784 42.9166C64.9357 47.1429 64.2811 51.408 63.8079 55.6926H63.7884ZM279.302 85.3025C280.1 86.9878 280.067 89.1981 279.912 91.1363C279.691 93.8911 278.719 96.5812 277.15 98.8499C276.787 99.3749 276.392 99.887 275.971 100.367C268.847 108.515 254.321 109.377 246.238 102.13C244.546 100.613 243.12 98.811 241.985 96.8404C239.412 92.3743 238.252 87.2341 237.403 82.1457C234.913 84.5635 232.165 86.2099 229.015 87.7721C226.137 89.1981 223.589 89.3991 220.685 90.3455C221.094 92.2252 223.22 94.4486 224.199 96.2311C225.385 98.3767 226.409 100.606 227.278 102.901C230 110.083 231.951 117.57 233.073 125.173C234.155 132.492 234.434 140.03 233.137 147.342C232.003 153.752 229.644 162.451 223.563 165.893C218.689 168.648 212.693 163.255 209.75 159.716C206.166 155.412 204.104 150.012 202.458 144.717C200.559 138.623 199.036 132.42 197.739 126.165C197.104 123.106 196.527 120.04 195.983 116.961C195.652 115.081 195.205 110.174 194.809 107.97C193.26 108.936 191.691 109.882 190.116 110.809C187.575 112.3 185.171 113.7 182.189 114.044C180.043 114.29 177.865 114.089 175.759 113.622C173.736 113.175 171.746 112.469 169.983 111.36C169.166 110.848 166.548 108.787 165.757 108.074C165.725 108.048 165.686 108.041 165.647 108.067C165.232 108.333 162.723 109.947 161.816 110.537C159.093 112.313 156.047 113.532 152.877 114.199C146.901 115.457 141.281 114.835 136.562 110.42C135.46 109.39 134.429 108.32 133.412 107.205C133.295 107.076 133.159 106.933 132.984 106.913C132.699 106.875 132.478 107.16 132.323 107.406C129.108 112.507 124.428 116.786 119.197 119.722C117.446 120.707 115.444 121.265 113.48 121.68C111.801 122.03 110.063 122.068 108.411 121.569C106.297 120.928 104.353 119.871 102.499 118.646C99.4849 116.656 98.4088 113.46 97.4041 110.291C95.4206 104.048 96.0105 97.8322 97.7995 91.6224C98.7135 88.4657 99.9645 85.4191 101.494 82.5217C104.437 76.9536 108.566 71.7745 112.773 67.0945C116.033 63.4646 119.663 59.8346 123.935 57.4363C125.322 56.6585 126.781 56.0167 128.297 55.5565C129.231 55.2778 130.119 54.8824 131.111 54.7722C132.083 54.6685 132.815 55.1157 133.626 55.5176C135.797 56.6131 140.561 61.6237 140.905 62.0709C142.707 64.4498 143.323 65.8111 142.869 68.8576C141.806 75.9749 141.91 83.1569 141.942 90.3325C141.942 90.5853 141.942 90.8446 141.942 91.0974C141.949 92.5947 141.961 94.1115 142.26 95.5829C142.584 97.1905 143.362 98.8239 144.671 99.8546C146.804 101.527 148.716 101.546 150.991 100.736C155.425 99.1675 159.677 94.2217 159.113 92.0697C158.704 90.501 157.778 84.8098 157.551 82.1198C157.032 76.0332 157.123 69.9012 157.816 63.834C159.34 50.5135 162.159 36.6679 167.954 24.592C169.173 22.0575 169.977 20.5212 172.887 20.1971C173.957 20.0805 176.011 20.7222 176.893 21.3445C181.832 24.8059 187.005 31.6379 187.757 33.388C188.126 34.2501 188.327 35.1511 188.561 36.0521C189.689 40.447 189.3 44.8482 188.833 49.2949C188.327 54.1434 187.148 58.8559 186.188 63.6072C184.931 69.8429 182.785 75.7998 180.588 81.7503C179.026 85.996 176.874 89.963 175.169 94.1374C174.443 95.9135 174.592 97.372 176.264 98.5322C181.878 102.415 188.198 98.4091 191.419 92.6984C189.915 91.7197 188.658 90.3973 187.874 88.7833C186.35 85.6395 186.979 81.4327 189.714 79.2612C190.881 78.3343 192.242 77.8482 193.694 77.6602C193.766 73.5376 193.869 69.4215 194.291 65.3055C195.043 57.916 196.196 50.5913 197.895 43.3639C199.185 37.8736 200.87 32.4935 202.659 27.1459C205.09 19.9055 207.559 12.6845 211.176 5.92376C211.909 4.54958 212.713 3.22076 213.698 2.00215C214.826 0.602031 216.355 0.200146 218.028 0.0510601C219.972 -0.123954 222.163 0.11588 223.764 1.32153C225.489 2.61794 227.206 3.96619 228.606 5.63207C230.188 7.50537 231.329 9.75463 231.912 12.14C232.288 13.6698 235.387 23.6261 227.206 53.4499C225.955 58.0197 223.123 66.0185 219.117 73.6154C216.55 78.4769 216.835 78.4445 217.069 78.6649C217.535 79.1121 219.895 77.9713 220.368 77.738C228.749 73.5571 233.086 68.6761 236.741 62.8293C238.647 59.7893 239.658 56.9177 241.11 53.6314C242.446 50.6043 242.912 46.5141 245.888 44.563C247.625 43.4222 249.809 43.0527 251.864 43.3314C252.966 43.4805 254.34 43.9602 254.859 45.0103C255.423 46.1446 255.092 47.6549 254.859 48.8282C252.979 58.3827 250.989 68.2937 251.417 78.0815C251.54 80.9271 251.948 83.844 253.121 86.4627C254.003 88.4333 256.038 91.6937 258.534 91.5706C259.61 91.5187 260.524 90.7992 261.354 90.1121C262.922 88.8027 264.251 87.2211 265.885 85.9831C267.894 84.4598 270.461 83.2736 272.943 82.8458C275.316 82.4374 278.181 82.9106 279.309 85.296L279.302 85.3025ZM130.417 69.0521C129.834 68.6826 128.771 69.5771 128.304 69.9012C127.578 70.3938 126.91 70.9578 126.256 71.5476C123.773 73.7904 121.297 75.9813 119.002 78.4121C116.85 80.6938 114.938 83.1958 113.304 85.8729C112.028 87.9601 110.919 90.151 109.992 92.4197C108.903 95.0838 108.074 97.9229 107.996 100.827C107.957 102.246 108.074 103.737 108.514 105.099C108.903 106.291 109.422 106.298 110.439 105.682C113.155 104.314 115.56 102.486 117.784 100.431C122.172 96.3737 125.536 91.5057 128.589 86.3979C128.777 86.0803 128.829 85.7497 128.842 85.3803C129.069 80.1558 129.892 74.9831 130.56 69.804C130.592 69.5447 130.709 69.2336 130.417 69.0521ZM173.257 68.1964C175.538 63.1145 177.703 53.6832 178.734 48.1865C180.095 40.9655 180.212 36.5707 179.693 33.9455C179.259 31.7546 177.775 34.0168 177.405 35.041C172.544 48.4328 168.395 63.8535 168.466 78.1787C168.92 77.2194 169.536 76.3638 170.029 75.4239C170.664 74.2182 172.693 69.441 173.25 68.1964H173.257ZM207.456 64.0285C211.144 57.0344 214.554 49.9107 217.373 42.5147C219.72 36.3633 221.567 30.0822 222.481 23.0039C222.526 22.1936 222.617 20.8583 222.682 19.5165C222.812 16.9432 222.889 14.3698 222.228 11.8483C222.157 11.5761 221.262 11.3687 221.081 11.6085C218.909 14.3957 217.548 17.6497 216.245 20.8648C213.918 26.5884 212.298 32.5713 210.58 38.5088C208.597 45.3862 207.559 52.3998 207.164 59.543C207.119 60.4051 207.08 61.2672 207.047 62.1358C207.021 62.8682 206.827 63.9118 207.034 64.5924C207.294 64.5147 207.339 64.2489 207.449 64.0285H207.456ZM219.953 116.358C219.091 112.475 217.684 108.715 215.973 105.124C215.422 103.971 212.79 97.9359 210.8 97.0997C210.373 96.9182 210.023 97.0349 209.627 97.3914C208.272 98.5971 208.117 100.153 208.752 107.004C209.348 113.421 216.952 152.197 222.112 150.648C222.468 150.544 225.644 141.923 219.953 116.364V116.358ZM110.433 105.688C110.433 105.688 110.439 105.688 110.446 105.688H110.433ZM261.807 20.1064C261.736 20.774 261.555 21.5584 262.034 22.0316C262.955 22.939 263.525 22.3686 263.849 23.6974C264.147 24.9225 262.501 28.183 262.118 29.4405C261.444 31.6638 260.388 33.9196 258.327 35.1576C256.045 36.5253 251.553 36.9791 249.699 34.6909C249.479 34.4187 249.297 34.1075 249.193 33.7705C249.077 33.388 249.07 32.9862 249.07 32.5908C249.057 31.6573 249.044 30.7239 249.103 29.797C249.135 29.259 249.193 28.7275 249.291 28.196C249.563 26.7116 250.179 25.2661 251.144 24.1058C252.188 22.8548 253.666 22.2584 255.008 21.4028C256.311 20.5731 262.235 16.0746 261.801 20.1064H261.807ZM256.019 28.8182C256.019 28.8182 256.012 28.7599 255.993 28.7469C255.974 28.734 255.948 28.7469 255.922 28.7469C255.935 28.7858 255.948 28.8247 255.954 28.8571C255.974 28.8442 255.993 28.8312 256.019 28.8182Z" fill="white"/>
</svg>

<?xml version="1.0" encoding="UTF-8"?>
<svg id="Layer_1" xmlns="http://www.w3.org/2000/svg" version="1.1" viewBox="0 0 280 186">
  <!-- Generator: Adobe Illustrator 29.5.0, SVG Export Plug-In . SVG Version: 2.1.0 Build 137)  -->
  <defs>
    <style>
      .st0 {
        fill: #4f2c1d;
      }
    </style>
  </defs>
  <path class="st0" d="M63.788,55.693c-1.031,9.373-1.244,18.992-.506,28.385.181,2.314-.441,5.011.408,7.221-.188-.493.681-1.601.882-2.055.447-1.011.791-2.074,1.193-3.105.771-1.996,1.562-3.986,2.366-5.963,1.607-3.967,3.267-7.908,4.985-11.83,3.436-7.837,7.091-15.57,10.974-23.199,1.536-3.021,3.027-6.061,4.537-9.101,1.847-3.611,3.844-7.15,5.652-10.78,1.569-2.923,2.489-6.313,6.281-6.754,7.331-.849,9.956,6.203,7.869,12.309-2.755,8.057-5.769,15.57-7.869,23.834-10.151,39.864-13.126,74.712-2.431,123.794.259,1.199.946,2.463.37,3.546-.136.246-2.949,4.453-11.908,3.325-1.186-.149-2.308-.752-3.235-1.51-2.12-1.744-2.917-4.914-3.597-7.468-.694-2.612-1.16-5.283-1.53-7.96-.616-4.485-.927-9.003-1.141-13.521-.032-.648-.123-1.335-.123-1.977,0-12.433.227-24.813,1.121-37.213.434-6.055.959-12.096,1.789-18.105.434-3.124.914-6.242,1.374-9.367.395-2.671,1.193-5.672,1.108-8.375-3.753,8.828-6.3,18.117-9.243,27.238-.681,2.106-1.296,4.232-1.834,6.378-.519,2.068-1.562,5.224-2.781,7.02-2.204,3.241-4.998,3.157-8.42,1.653-3.915-1.718-6.644-5.108-8.258-9.01-2.431-5.866-3.358-12.776-4.233-19.031-.603-4.33-.998-8.692-1.173-13.068-.091-2.165-.24-4.401-.104-6.566.058-.933.48-3.597-.908-3.87-.869-.169-4.012,8.135-4.447,9.062-1.679,3.572-3.436,7.111-5.296,10.592-4.712,8.816-10.28,17.08-16.354,25.001-1.718,2.243-3.617,4.57-6.275,5.497-4.161,1.459-10.514-.901-12.335-5.062-2.074-4.732.836-8.518,3.915-11.869,2.671-2.91,5.205-5.944,7.649-9.049,30.841-39.145,36.539-61.411,38.503-63.815,1.692-2.061,4.11-4.233,6.858-4.57,1.899-.233,4.058.421,5.788,1.16,1.685.719,2.897,2.113,3.559,3.818,1.381,3.604-.48,7.999-1.193,11.583-.843,4.226-1.497,8.491-1.97,12.776h-.02ZM279.302,85.302c.798,1.685.765,3.896.61,5.834-.221,2.755-1.193,5.445-2.762,7.714-.363.525-.758,1.037-1.179,1.517-7.124,8.148-21.65,9.01-29.733,1.763-1.692-1.517-3.118-3.319-4.253-5.29-2.573-4.466-3.733-9.606-4.582-14.695-2.49,2.418-5.238,4.064-8.388,5.626-2.878,1.426-5.426,1.627-8.33,2.573.409,1.88,2.535,4.103,3.514,5.886,1.186,2.146,2.21,4.375,3.079,6.67,2.722,7.182,4.673,14.669,5.795,22.272,1.082,7.319,1.361,14.857.064,22.169-1.134,6.41-3.493,15.109-9.574,18.551-4.874,2.755-10.87-2.638-13.813-6.177-3.584-4.304-5.646-9.704-7.292-14.999-1.899-6.094-3.422-12.297-4.719-18.552-.635-3.059-1.212-6.125-1.756-9.204-.331-1.88-.778-6.787-1.174-8.991-1.549.966-3.118,1.912-4.693,2.839-2.541,1.491-4.945,2.891-7.927,3.235-2.146.246-4.324.045-6.43-.422-2.023-.447-4.013-1.153-5.776-2.262-.817-.512-3.435-2.573-4.226-3.286-.032-.026-.071-.033-.11-.007-.415.266-2.924,1.88-3.831,2.47-2.723,1.776-5.769,2.995-8.939,3.662-5.976,1.258-11.596.636-16.315-3.779-1.102-1.03-2.133-2.1-3.15-3.215-.117-.129-.253-.272-.428-.292-.285-.038-.506.247-.661.493-3.215,5.101-7.895,9.38-13.126,12.316-1.751.985-3.753,1.543-5.717,1.958-1.679.35-3.417.388-5.069-.111-2.114-.641-4.058-1.698-5.912-2.923-3.014-1.99-4.09-5.186-5.095-8.355-1.983-6.243-1.394-12.459.395-18.669.914-3.157,2.165-6.203,3.695-9.101,2.943-5.568,7.072-10.747,11.279-15.427,3.26-3.63,6.89-7.26,11.162-9.658,1.387-.778,2.846-1.42,4.362-1.88.934-.279,1.822-.674,2.814-.784.972-.104,1.704.343,2.515.745,2.171,1.095,6.935,6.106,7.279,6.553,1.802,2.379,2.418,3.74,1.964,6.787-1.063,7.117-.959,14.299-.927,21.475v.765c.007,1.497.019,3.014.318,4.486.324,1.608,1.102,3.241,2.411,4.272,2.133,1.672,4.045,1.691,6.32.881,4.434-1.568,8.686-6.514,8.122-8.666-.409-1.569-1.335-7.26-1.562-9.95-.519-6.087-.428-12.219.265-18.286,1.524-13.32,4.343-27.166,10.138-39.242,1.219-2.534,2.023-4.071,4.933-4.395,1.07-.117,3.124.525,4.006,1.147,4.939,3.461,10.112,10.293,10.864,12.044.369.862.57,1.763.804,2.664,1.128,4.395.739,8.796.272,13.243-.506,4.848-1.685,9.561-2.645,14.312-1.257,6.236-3.403,12.193-5.6,18.143-1.562,4.246-3.714,8.213-5.419,12.387-.726,1.776-.577,3.235,1.095,4.395,5.614,3.883,11.934-.123,15.155-5.834-1.504-.979-2.761-2.301-3.545-3.915-1.524-3.144-.895-7.351,1.84-9.522,1.167-.927,2.528-1.413,3.98-1.601.072-4.123.175-8.239.597-12.355.752-7.389,1.905-14.714,3.604-21.942,1.29-5.49,2.975-10.87,4.764-16.218,2.431-7.24,4.9-14.461,8.517-21.222.733-1.374,1.537-2.703,2.522-3.922,1.128-1.4,2.657-1.802,4.33-1.951,1.944-.175,4.135.065,5.736,1.27,1.725,1.296,3.442,2.645,4.842,4.311,1.582,1.873,2.723,4.123,3.306,6.508.376,1.53,3.475,11.486-4.706,41.31-1.251,4.57-4.083,12.569-8.089,20.166-2.567,4.861-2.282,4.829-2.048,5.049.466.447,2.826-.694,3.299-.927,8.381-4.181,12.718-9.062,16.373-14.909,1.906-3.04,2.917-5.912,4.369-9.198,1.336-3.027,1.802-7.117,4.778-9.068,1.737-1.141,3.921-1.51,5.976-1.232,1.102.149,2.476.629,2.995,1.679.564,1.134.233,2.645,0,3.818-1.88,9.555-3.87,19.465-3.442,29.253.123,2.846.531,5.763,1.704,8.381.882,1.971,2.917,5.231,5.413,5.108,1.076-.052,1.99-.771,2.82-1.459,1.568-1.309,2.897-2.891,4.531-4.129,2.009-1.523,4.576-2.71,7.058-3.137,2.373-.408,5.238.065,6.366,2.45l-.007.007ZM130.417,69.052c-.583-.369-1.646.525-2.113.849-.726.493-1.394,1.057-2.048,1.646-2.483,2.243-4.959,4.434-7.254,6.865-2.152,2.282-4.064,4.784-5.698,7.461-1.276,2.087-2.385,4.278-3.312,6.547-1.089,2.664-1.918,5.503-1.996,8.407-.039,1.419.078,2.91.518,4.272.389,1.192.908,1.199,1.925.583,2.716-1.368,5.121-3.196,7.345-5.251,4.388-4.057,7.752-8.925,10.805-14.033.188-.318.24-.648.253-1.018.227-5.225,1.05-10.397,1.718-15.576.032-.259.149-.57-.143-.752ZM173.257,68.196c2.281-5.082,4.446-14.513,5.477-20.01,1.361-7.221,1.478-11.616.959-14.241-.434-2.191-1.918.071-2.288,1.096-4.861,13.392-9.01,28.812-8.939,43.138.454-.959,1.07-1.815,1.563-2.755.635-1.206,2.664-5.983,3.221-7.227h.007ZM207.456,64.029c3.688-6.994,7.098-14.118,9.917-21.514,2.347-6.151,4.194-12.433,5.108-19.511.045-.81.136-2.146.201-3.487.13-2.573.207-5.147-.454-7.668-.071-.272-.966-.48-1.147-.24-2.172,2.787-3.533,6.041-4.836,9.256-2.327,5.724-3.947,11.707-5.665,17.644-1.983,6.877-3.021,13.891-3.416,21.034-.045.862-.084,1.724-.117,2.593-.026.732-.22,1.776-.013,2.457.26-.078.305-.343.415-.564h.007ZM219.953,116.358c-.862-3.883-2.269-7.643-3.98-11.234-.551-1.153-3.183-7.188-5.173-8.024-.427-.182-.777-.065-1.173.292-1.355,1.206-1.51,2.762-.875,9.613.596,6.417,8.2,45.193,13.36,43.644.356-.104,3.532-8.725-2.159-34.284v-.006ZM110.433,105.688h.013-.013ZM261.807,20.106c-.071.668-.252,1.452.227,1.925.921.907,1.491.337,1.815,1.666.298,1.225-1.348,4.486-1.731,5.743-.674,2.223-1.73,4.479-3.791,5.717-2.282,1.368-6.774,1.821-8.628-.467-.22-.272-.402-.583-.506-.92-.116-.382-.123-.784-.123-1.18-.013-.934-.026-1.867.033-2.794.032-.538.09-1.069.188-1.601.272-1.484.888-2.93,1.853-4.09,1.044-1.251,2.522-1.847,3.864-2.703,1.303-.83,7.227-5.328,6.793-1.296h.006ZM256.019,28.818s-.007-.058-.026-.071c-.019-.013-.045,0-.071,0,.013.039.026.078.032.11.02-.013.039-.026.065-.039Z"/>
</svg>
